!!!OTL: Gungun de huanghe xiangdongfang
!!!ARE: Asia, China,ÿQinghai Xunhua
!! I, 217, 1)
!!!SCT: C1848
!!!YEM: Copyright 1995, estate of Helmut Schaffrath.
**kern
*ICvox
*Ivox
!! Mixed meters:  2/4; 3/4
*M3/4
*k[]
*C:
{16g
8g
16a
8g
16e
16d
=1
16g
8g
16a
8cc
16dd
16ee
=2
16ee
16gg
16ee
16dd
8cc
16dd
16ee
=3
[2dd
=4
4.dd]
8ee}
=5
{8.gg
16gg
8cc
16a
16cc
=6
16dd
16cc
16dd
16cc
4a
8r}
{8a
=7
*M2/4
16g
8g
16a
8g
16e
16d
=8
16g
8g
16a
8cc
16dd
16ee
=9
16ee
16gg
16ee
16dd
8cc
16cc
16a}
=10
{8g
16g
16a
8cc
16dd
16ee
=11
8cc
16dd
16cc
16a
16g
16a
16g
=12
[2g
=13
2g]}
==
!!!AGN: Shange
!! Sala
!!!ONB: ESAC (Essen Associative Code) Database: SENGANSU
!!!AMT: irregular
!!!AIN: vox
!!!EED: Helmut Schaffrath
!!!EEV: 1.0
*-
!!!ONB: Tied note syntax fixed by Craig Sapp, 2004/05/03/
